icons/type-icons/icons/text-csv.svg

<?xml version="1.0" encoding="UTF-8" standalone="no"?>

<!-- Created with Inkscape (http://www.inkscape.org/) -->
<svg width="22" version="1.1" xmlns="http://www.w3.org/2000/svg" height="22" xmlns:inkscape="http://www.inkscape.org/namespaces/inkscape">
 <defs id="defs3871"/>
 <metadata id="metadata3874"/>
 <g inkscape:label="Capa 1" inkscape:groupmode="layer" id="layer1" transform="matrix(1 0 0 1 -326 -534.3622)">
  <path style="fill:#04896a;stroke-width:2" id="rect4376" d="M 3 3 L 3 19 L 14 19 L 14 18 L 14 14 L 14 13 L 14 9 L 18 9 L 18 13 L 19 13 L 19 3 L 3 3 z M 4 4 L 18 4 L 18 8 L 4 8 L 4 4 z M 4 9 L 8 9 L 8 13 L 4 13 L 4 9 z M 9 9 L 13 9 L 13 13 L 9 13 L 9 9 z M 4 14 L 8 14 L 8 18 L 4 18 L 4 14 z M 9 14 L 13 14 L 13 18 L 9 18 L 9 14 z " transform="matrix(1 0 0 1 326 534.3622)"/>
  <path inkscape:connector-curvature="0" style="fill:#04896a" id="rect4031" d="m 342.5,548.3622 c -0.83101,0 -1.5,0.63799 -1.5,1.42969 0,0.7634 0.62316,1.37632 1.41211,1.41992 0.0575,0.2617 0.0869,0.52812 0.0879,0.79492 -0.002,0.4631 -0.0888,0.92207 -0.25781,1.35547 1.1,-0.7343 1.75582,-1.93289 1.75781,-3.21289 l 0,-0.35742 c 0,-0.7918 -0.669,-1.42969 -1.5,-1.42969 z"/>
 </g>
</svg>

<?xml version="1.0" encoding="UTF-8"?><svg width="22" height="22" version="1.1" xmlns="http://www.w3.org/2000/svg">
 <g id="layer1" transform="translate(-326 -534.36)" fill="#04896a">
  <path id="rect4376" transform="translate(326 534.36)" d="m3 3v16h11v-10h4v4h1v-10h-16zm1 1h14v4h-14v-4zm0 5h4v4h-4v-4zm5 0h4v4h-4v-4zm-5 5h4v4h-4v-4zm5 0h4v4h-4v-4z" stroke-width="2"/>
  <path id="rect4031" d="m342.5 548.36c-0.83101 0-1.5 0.63799-1.5 1.4297 0 0.7634 0.62316 1.3763 1.4121 1.4199 0.0575 0.2617 0.0869 0.52812 0.0879 0.79492-2e-3 0.4631-0.0888 0.92207-0.25781 1.3555 1.1-0.7343 1.7558-1.9329 1.7578-3.2129v-0.35742c0-0.7918-0.669-1.4297-1.5-1.4297z"/>
 </g>
</svg>
